!!!COM: Music21
!!!OTL: Polca para Pucho
!!!OMV: pezas_polca_polca-para-pucho_polca-para-pucho-partitura.musicxml
**kern
*part1
*staff1
*I"Gaita
*I'Bag
*clefG^2
*k[]
*M2/4
*MM104
=1
!LO:TX:a:t=[quarter]=104
4.r
16ccLL
16ddJJ
=||
16eeLL
16cc
16ee
16ffJJ
16ggLL
16aa
16gg
16ffJJ
=
16eeLL
16dd
16cc
16ddJJ
8eeL
16ccL
16eeJJ
=
16ddLL
16ee
16ff
16ggJJ
16aaLL
16gg
16ff
16ggJJ
=
16eeLL
16dd
16cc
16eeJJ
8ddL
16ccL
16ddJJ
!!linebreak:original
=
16eeLL
16cc
16ee
16ffJJ
16ggLL
16ccc
16bb
16aaJJ
!!linebreak:original
=
16ggLL
16ff
16ee
16ffJJ
8ggL
16ccL
16eeJJ
=
16ddLL
16cc
16dd
16eeJJ
16ffLL
16gg
16aa
16bbJJ
=
16cccLL
16aa
16gg
16eeJJ
8ccL
16ccL
16ddJJ
=||
16eeLL
16cc
16ee
16ffJJ
16ggLL
16aa
16gg
16ffJJ
=
16eeLL
16dd
16cc
16ddJJ
8eeL
16ccL
16eeJJ
!!linebreak:original
=
16ddLL
16ee
16ff
16ggJJ
16aaLL
16gg
16ff
16ggJJ
=
16eeLL
16dd
16cc
16eeJJ
8ddL
16ccL
16ddJJ
=
16eeLL
16cc
16ee
16ffJJ
16ggLL
16ccc
16bb
16aaJJ
!!linebreak:original
=
16ggLL
16ff
16ee
16ffJJ
8ggL
16ccL
16eeJJ
=
16ddLL
16cc
16dd
16eeJJ
16ffLL
16gg
16aa
16bbJJ
=
16cccLL
16aa
16gg
16eeJJ
8ccL
8cccJ
.
=||
4aa
.
4bb-X
.
=
16cccLL
16bb-X
16aa
16ggJJ
16ffLL
16gg
16aa
16bb-JJ
!!pagebreak:original
=
8cccL
16aaL
16ggJJ
16ffLL
16gg
16aa
16ffJJ
=
16ggLL
16ff
16ee
16ddJJ
8ccL
8cccJ
.
=
4aa
.
4bb-X
.
=
16cccLL
16bb-X
16aa
16ggJJ
16ffLL
16gg
16aa
16bb-JJ
=
8cccL
8aaJ
8bb-XL
8ggJ
=
8ffL
16cccL
16aaJJ
8ffL
8cccJ
.
!!linebreak:original
=||
4aa
.
4bb-X
.
=
16cccLL
16bb-X
16aa
16ggJJ
16ffLL
16gg
16aa
16bb-JJ
!!linebreak:original
=
8cccL
16aaL
16ggJJ
16ffLL
16gg
16aa
16ffJJ
=
16ggLL
16ff
16ee
16ddJJ
8ccL
8cccJ
.
=
4aa
.
4bb-X
.
=
16cccLL
16bb-X
16aa
16ggJJ
16ffLL
16gg
16aa
16bb-JJ
=
8cccL
8aaJ
8bb-XL
8ggJ
=
8ffL
16cccL
16aaJJ
8ffL
8ccJ
!!linebreak:original
=||
4.aa
.
.
8bb-X
!!linebreak:original
=
4.gg
.
.
.
8cc
=
4.bb-X
.
.
8ccc
=
16aaLL
16bb-X
16aa
16ggJJ
16ffLL
16ee
16ff
16ggJJ
=
4.aa
.
.
8bb-X
=
4.gg
.
.
.
8bb-X
=
4aa
.
4gg
.
=
8ffL
16cccL
16aaJJ
8ffL
8ccJ
!!linebreak:original
=||
4.aa
.
.
8bb-X
!!pagebreak:original
=
4.gg
.
.
.
8cc
=
4.bb-X
.
.
8ccc
=
16aaLL
16bb-X
16aa
16ggJJ
16ffLL
16ee
16ff
16ggJJ
=
4.aa
.
.
8bb-X
=
4.gg
.
.
.
8bb-X
=
4aa
.
4gg
.
=
8ffL
16cccL
16aaJJ
8ffL
16ccL
16ddJJ
==
*-
!!!system-decoration: s1,s2
